X:1
T:nocturne op. 9-2
T:Nocturne Op. 9 No. 2 
T:Frédéric Chopin (1810-49) arr. finn tranberg
T:1830-32
T:www.finntranberg.dk
T:www.finntranberg.dk
T:www.finntranberg.dk
T:www.finntranberg.dk
T:www.finntranberg.dk
C:Frédéric Chopin arr. finn tranberg
Z:www.finntranberg.dk
%%score { ( 1 3 ) | 2 }
L:1/8
Q:1/8=132
M:12/8
K:Eb
V:1 treble nm="Piano" snm="Pno."
V:3 treble 
V:2 bass 
V:1
!p!"^Andante" B |"Eb" !5![Bg-]3"Ddim7/Eb" g!4!fg"Eb" [Bf]3"Eb/D" e2 [GB] | %2
"C7"!<(! !1!!5![cg]2 (5:4:5!1!c/4!4!_d/4!3!c/4!2!=B/4!1!c/4 !5![cc']2 g"Edim7/F" [_B_b]3"Fm" [Aca]2 [cg]!<)! | %3
"Bb7"!p! !4!f3"G7/B" g2 [Fd]"Cm" e3"Adim7" c3 | %4
"Bb7sus4"!<(! [FB]d'c'"Bb7" b/a/g/!f!a/c/d/"Eb" [Be]3 z2 [GB]!<)! | %5
"Eb"!p! [Bg]3"Ddim7/Eb" !3!f/g/(3f/4g/4f/4=e/f/g/"Eb" f !>![B_e-]2"Eb/D" e/!3!f/(3e/4f/4e/4d/e/f/ | %6
"C7"!<(! g/=B/c/!>!_d/c/!>!f/ =e/!>!a/g/_d'/c'/g/"Edim7/F"!>(! [_B_b]3"Fm" [Aca]2 [cg]!<)!!>)! | %7
"Bb7"!p! !3!f/g/(3f/g/f/g/4f/4=e/4f/4"G7/B" g!>!g[Fd]"Cm" _e3"Adim7" c3 | %8
"Bb7sus4" [FB]d'.c'"Bb7" .b/.a/.g/.a/{/a}c/d/"Eb" [Be-]3 ed[Be] | %9
"Bb"!p! !4!f3 !>![Bg]2 [Ff]"F/A" f3 c3 |"Ab"!pp! .e.e.e"Abm" .ed/e/f/>e/"Eb" [Be]3!<(! B3!<)! | %11
"Edim7"!f! [Bb]3"C7/E" [B=a]2 g"F7"!>(! [=Af]3"Gm" [Bd]3!>)! | %12
"Cm" e3"F7" .!2!!5![=Ad].[EAc].[FAd]"Bb" !3![FB]"B7""^A       G#        G"!<(!!4![^F=B]"E"[=EB]"C7" !3!!5![E_Bc]"F7"!4![=F=Ac]"Bb7"!2!!5![F_Ad]!<)! | %13
"Eb"{GBe} [Bg]2!p! =A/B/"Ddim7/Eb" !>!_c/B/^c/d/!>!g/>f/"Eb" [Bf]2 [Be-]"Eb/D" e/f/(3e/4f/4e/4d/e/f/ | %14
"C7"!<(! g/=B/c/!>!_d/c/!>!f/ =e/!>!a/g/_d'/c'/g/"Edim7/F" [_B_b]3"Fm"!>(! [Aca]2 [cg]!<)!!>)! | %15
"Bb7"!p! !3!f/g/(3f/g/f/g/4f/4=e/4f/4"G7/B" .g!>!g[Fd]"Cm" _e3"Adim7" c3 | %16
"Bb7sus4" [FB]d'c'"Bb7" b/=a/_a/4f/4d/4!>!_c/4B/4d/4(3g/4f/4e/4"Eb" [Be-]3 ed[Be] | %17
"Bb" f3 [Bg]2 [Ff]"F/A" f3 c3 |"Ab" (4:3:4eeee"Abm" ed/e/f/>e/"Eb" [Be]3 B3 | %19
"Edim7"!f! [Bb]3"C7/E" [B=a]2 g"F7"!>(! [=Af]3"Gm" [Bd]3!>)! | %20
"Cm" e3"F7" .!2!!5![=Ad].[EAc].[FAd]"Bb" !3![FB]"B7""^A       G#        G"!<(!!4![^F=B]"E"[=EB]"C7" !3!!5![E_Bc]"F7"!4![=F=Ac]"Bb7"!2!!5![F_Ad]!<)! | %21
"Eb""^a tempo"{GBe} [Bg]2!p! =A/B/"Ddim7/Eb" !>!_c/B/^c/d/!>!g/>f/"Eb" [Bf]2 [Be-]"Eb/D" e/f/(3e/4f/4e/4d/e/f/ | %22
"C7" g/=B/c/!>!_d/c/!>!f/ =e/!>!a/g/_d'/c'/g/"Edim7/F"{/g} [_B_b]3"Fm" [Aca]2 [cg] | %23
"Bb7" !3!f/g/(3f/g/f/g/4f/4=e/4f/4"G7/B" gg[Fd]"Cm" _e3"Adim7" c3 | %24
"Bb7sus4" [FB]d'c'"Bb7" b/=a/_a/4f/4d/4_c/4B/4d/4(3g/4f/4e/4"Eb" !>![Be]6 | %25
"Abm/Eb"!p! !>![Ae]3 fef"Eb" [Bg]6 | %26
"Abm/Eb"!pp! [Ae]3- [Ae]/f/e/f/"_poco rubato"e/f/"Eb" [Bg]2 (5:4:5!2!e/4!3!f/4!2!e/4!1!d/4!2!e/4"^eb" !5!e'"^d"d'c' | %27
"Bb7/Eb"!pp! [Bb]2 (=a _a)c[Ad]"Eb" ef/(3e/4f/4e/4d/e/"F7/A"!8va(!{/e'} .g'.f'/.e'/.d'/.c'/!8va)! | %28
"Bb7sus4" _c'b__b"Bb7" b/a/ a/g/ g/>f/"Eb" !>![Be]6 | %29
"Abm"!p! !3!e3- (8:6:8e/f/e/f/e/f/e/f/"Eb" [Bg]3 z E[EG] | %30
"Abm""^con forza" eA/B/(3A/4B/4A/4G/ A/_c/e/a/"^eb"e'/ z/4"^f" f'/4"Eb""^g eb" g'e'!8va(!!>![e'e'']-"F7/A" [e'e''][d'd''][c'=c'']!8va)! | %31
"Bb7"!8va(! [_c'_c''][bb'][__b__b']"G7/B" [_a_a'][gg'][dd']"Cm" [ee'] !>![e'e'']2-"F7/A" [e'e''][ff'][=c'=c'']!8va)! | %32
"Bb7"!ff!!8va(! [_c'_c'']6 !fermata![bb']6!8va)! | %33
!p!"_(play first figure 12 times if you like)"!<(!!8va(! !3!_c''/!2!b'/!4!=c''/!1!=a'/!f! _c''/b'/d''/=c''/!mf!!<(! b'/=a'/_a'/g'/"_smorz.""^f" f''/"^d"d''/"^eb"e''/c''/!p! b'a'c'd'!<)!!8va)!!<)! | %34
"Eb"!p! [Ge]Bg [Ge]Bg [Ge]Bg [Ge]Bg |"Eb"!pp! [Ge]3"^eb" [ge']3 !fermata![G,E]6 |] %36
V:2
 z | %1
"^espressivo dolce""^section\n   A1.1\n\n" E,,!3!G,[G,B,E]!ped! !4!E,!3!!2![A,_C]!1!!2!!3![A,CD] E,,G,[G,B,E]"_con Ped. simile" D,,[G,B,][G,B,E] | %2
 C,,!3!G,[G,B,=E] C,!4!G,[G,C=E] F,,!3!_D!3!!2![D=E] F,,C[CF] | %3
"^A1.2" B,,!3!F,[B,D] =B,,!4!!2![G,D][G,D] C,!3!G,[G,C] =A,,_G,[G,C] | %4
 B,,!4![F,A,]!2![F,A,E] B,,, [F,B,][F,B,D] E,,G,[G,B,E] E,[G,B,][G,B,E] | %5
"^A2.1" !4!E,!3!G,[G,B,E] E,!2!!3![A,_C][A,_CD] E,!3!G,[G,B,E] D,!2![G,B,][G,B,E] | %6
"^cresc." C,!3!!4![G,B,][G,B,=E] C,!5!!2![G,C][G,C=E] F,,!3!_D[D=E] F,,C[CF] | %7
"^A2.2" B,,!3![F,B,][F,B,D] =B,,!5!!2![G,D][G,D] C,!3!G,[G,C] =A,,!3!_G,[G,C] | %8
 B,,!4![F,A,]!2![F,A,E] B,,, !3![F,B,][F,B,D] E,,!3!G,[G,B,E] E,[G,B,][B,E] | %9
"^B1.1" B,,F,[F,B,] B,,F,[F,B,] =A,,F,[F,C] =A,,F,[F,C] | %10
 A,,"^poco ritard."!5!!2![E,C][E,CE]"_ab" A,,, [E,_C][E,_CE] E,,!3!G,[G,B,E] !5!E,G,[G,B,] | %11
"^B1.2" =E,,!3!G,"^a tempo"[G,B,_D] =E,,!4!C!4!!3!!2![C=EG] F,,C[C_E] G,,G,[G,B,=D] | %12
 C,, G,C F,, F,[CE]"^poco rall." [B,D][=A,^D]^G, =G,[=F,C_E]B, | %13
"^a tempo""^A3.1" E,, !3!G,[G,B,E]"_Ped. come sopra\n\n" E,!3!!2![A,_C][A,CD] E,!3!G,[G,B,E] D,!3![G,B,][G,B,E] | %14
 C,[G,B,][G,B,=E]"^cresc." C,[G,C][G,C=E] F,,!3!_D[D=E] F,, C [CF] | %15
"^A3.2" B,,[F,B,][F,B,D] =B,,[G,D][G,D] C,G,[G,C] =A,,_G,[G,C] | %16
 B,,!4![F,A,][F,A,E] B,,,[F,B,][F,B,D] E,,G,[G,B,E] E,[G,B,][B,E] | %17
"^B2.1" B,,F,[F,B,] B,,F,[F,B,] =A,,F,[F,C] =A,,F,[F,C] | %18
 A,,!5!!2![E,C][E,CE] A,,, !2![E,_C][E,CE] E,,!3!G,[G,B,E] E,G,[G,B,] | %19
"^B2.2" =E,,!3!G,"^a tempo"[G,B,_D] =E,,!4!C!4!!3!!2![C=EG] F,,C[C_E] G,,G,[G,B,=D] | %20
 C,, G,C F,, F,[CE]"^poco rall." [B,D][=A,^D]^G, =G,[=F,C_E]B, | %21
"^A4.1" E,, !3!G,[G,B,E] E,!3!!2![A,_C][A,CD] E,!3!G,[G,B,E] D,!3![G,B,][G,B,E] | %22
 C,[G,B,][G,B,=E] C,[G,C][G,C=E] F,,_D[D=E] F,,C[CF] | %23
"^A4.2" B,,[F,B,][F,B,D] =B,,[G,D][G,D] C,G,[G,C] =A,,_G,[G,C] | %24
 B,,!4![F,A,][F,A,E] B,,,[F,B,][F,B,D] E,,G,[G,B,E] E,G,[G,B,E] | %25
"^Coda\nfinale\n" E,,!3!A,[A,_CE] E,!3!!2![A,_C][A,CE] E,,G,[G,B,E] E,G,[G,B,E] | %26
 E,,A,[A,_CE] E,[A,_C][A,CE] E,, G,[G,B,E] E,!4!!2![B,E][B,EG] | %27
 E,F,[F,D] E,[F,B,][F,B,D] E,[G,B,][G,B,E] =A,,[F,C][F,CE] | %28
 B,,!2![F,D][F,DF] B,,, [F,B,][F,B,D] E,,G,[G,B,E] E,G,[G,B,E] | %29
"_ab" A,,, !3![E,A,] !1!!2!!3![A,_CE] [CE][A,_CE]!5!!3!!2![E,A,_C] E,,G,[G,B,E] E,G,[G,B,] | %30
 A,,, !3!!2![E,A,_C]!3!!2!!1![A,_CE] [E,A,_C][A,CE][E,A,C] E,,!2![G,E]"^g"[G,EG] =A,,[F,E][=CEF] | %31
"^stretto""^(you play octaves)" B,,[F,B,D][F,DF] =B,,[G,F][DFG] C,[G,E]"^g"[CEG] =A,,[F,CE][CEF] | %32
"^senza tempo---------------------------------" (8:6:8B,,,B,,F,A,DB,[K:treble]FA d6 | %33
[K:bass] z8 z4 | %34
"^a tempo""_The Nocturne is written around 1832 and thus before the invention of the iron frame in the piano around 1845. The powerfull \nmodern piano is not suitable for Chopin's technique unless you are very skilled.\n    This modern arrangement is made in the highest possible quality and is more easy to read and play. The Nocturne is \"original\",  \nbut it is corrected.\n    Ornaments are written in notes. Phrases you make yourself. Staccato is used very little - does not work well together with the   \nsustain pedal. You can put extra cord notes in your left hand if you like, but I do not recommend it.\n\n    The Nocturne has some dissonances and unclear harmonic structures. Already in the first measure you have a dissonance : eb-d.\n\n    We do not know how Chopin played, but most likely he played rubato to counteract the creation of dissonances. It has been \ncorrected partly (measure 16 - also unnessarily complicated). \n    In short I have tried to make a modern cord based arrangement.  \n    I play the nocturne this way, but more slowly (80% = 105,6 eight notes). It is more easy, but in fact it sounds much better.\n\nBest of luck. FT\n\n \n\n\n  \n" E,,B,B,, E,B,B,, E,,B,B,, E,B,B,, | %35
 [E,B,]3[K:treble] [EB]3[K:bass] !fermata![E,,B,,]6 |] %36
V:3
 x | x12 | x12 | A2 F x3 G2 E E2 E | x12 | x12 | x12 | x6 G2 E E2 E | x12 | !2!B2 F x3 c2 F F2 F | %10
 x9 E2 [EG] | x12 | GE[EG] x9 | x12 | x12 | x6 G2 E E2 E | x12 | B2 F x3 c2 F F2 F | x9 E2 [EG] | %19
 x12 | GE[EG] x9 | x12 | x12 | x6 G2 E E2 E | x12 | x12 | x12 | x9!8va(! x3!8va)! | x12 | A3 A x8 | %30
 x8!8va(! x4!8va)! |!8va(! x12!8va)! |!8va(! x12!8va)! |!8va(! x12!8va)! | x12 | x12 |] %36

